packages/core/src/svgs/tokens/mono/USH.svg

<svg width="24" height="24" viewBox="0 0 24 24" fill="none" xmlns="http://www.w3.org/2000/svg">
<path d="M11.9233 2L3.17651 6.99988L11.9999 11.9998L20.8231 6.99988L11.9233 2Z" fill="white"/>
<path d="M3.17651 17.1647V7.00024L11.9999 12.0002V21.9999L3.17651 17.1647Z" fill="white"/>
<path d="M20.8235 17.1647V7.00024L12.0002 12.0002V21.9999L20.8235 17.1647Z" fill="white"/>
<path d="M12.0004 7.25317L16.118 9.60608V14.3119L12.0004 16.6647L7.88281 14.3119V9.60608L12.0004 7.25317Z" fill="white"/>
<path d="M7.88281 9.66455L12.0004 11.9999V16.6644L7.88281 14.3116V9.66455Z" fill="white"/>
<path d="M16.118 9.66483V9.60608L12.0004 7.25317L7.88281 9.60608V9.66483L12.0004 12.0002L16.118 9.66483Z" fill="white"/>
</svg>

<svg xmlns="http://www.w3.org/2000/svg" width="24" height="24" fill="none" viewBox="0 0 24 24">
    <path fill="#fff" d="M11.923 2 3.177 7 12 12l8.823-5z"/>
    <path fill="#fff" d="M3.177 17.165V7L12 12v10zm17.647 0V7L12 12v10z"/>
    <path fill="#fff" d="m12 7.253 4.118 2.353v4.706L12 16.665l-4.117-2.353V9.606z"/>
    <path fill="#fff" d="M7.883 9.665 12 12v4.664l-4.117-2.352z"/>
    <path fill="#fff" d="M16.118 9.665v-.059L12 7.253 7.883 9.606v.059L12 12z"/>
</svg>
